X:23
T:GB/7d/23 Old Black Joe
%%VWML:GB-7d-23-0
F:http://www.vwml.org/record/GB/7d/23
T:Bucknell Morris Tunes 7 of 8
C:Transcribed by Simon Furey and Lewis Jones
L:1/8
M:6/8
I:linebreak $
K:F
CFF FEF | GAG G2 G | Fcc cBA | GAG BAG | F3 D3 | GFE F3 :|$ BAB c2 c | dBd c3 | BAB c2 c | dBd c3 | cBA AGF |$ GAG G2 G | Fcc cBA | GAG BAG | F3 D3 | GFE F3 |]

